X:8
T:Welsh Dance
M:6/4
L:1/8
Q:210
C:From `The Masque of Flowers' 1614
R:Waltz
K:G
D2 G2 F2 G6 | E2 A2 ^G2 A6 | F2 =G2 A2 B6 | G2 B2 ^c2 d6 | G2 B2 A2 G4 F2|
G2 E2 C2 D6 :|| =cB A2 G2 A6 | dc B2 A2 c6 | cB A2 G2 B2 A4 | G2 G2F2 G6 |
cB AB G2 A6 | dc B2 ABc6 | cB A2 GA Bc A4 | GB AG F2 G6 ||
